material/.icons/material/youtube-tv.svg

<svg xmlns="http://www.w3.org/2000/svg" viewBox="0 0 24 24"><path d="M2.5 4.5h19c.84 0 1.5.65 1.5 1.5v11.5c0 .85-.66 1.5-1.5 1.5h-19c-.85 0-1.5-.65-1.5-1.5V6c0-.85.65-1.5 1.5-1.5m7.21 4V15l5.71-3.3-5.71-3.2M17.25 21H6.65c-.3 0-.5-.2-.5-.5s.2-.5.5-.5h10.7c.3 0 .5.2.5.5s-.3.5-.6.5z"/></svg>

<?xml version="1.0" encoding="UTF-8"?><!DOCTYPE svg PUBLIC "-//W3C//DTD SVG 1.1//EN" "http://www.w3.org/Graphics/SVG/1.1/DTD/svg11.dtd"><svg xmlns="http://www.w3.org/2000/svg" xmlns:xlink="http://www.w3.org/1999/xlink" version="1.1" id="mdi-youtube-tv" width="24" height="24" viewBox="0 0 24 24"><path d="M2.5,4.5H21.5C22.34,4.5 23,5.15 23,6V17.5C23,18.35 22.34,19 21.5,19H2.5C1.65,19 1,18.35 1,17.5V6C1,5.15 1.65,4.5 2.5,4.5M9.71,8.5V15L15.42,11.7L9.71,8.5M17.25,21H6.65C6.35,21 6.15,20.8 6.15,20.5C6.15,20.2 6.35,20 6.65,20H17.35C17.65,20 17.85,20.2 17.85,20.5C17.85,20.8 17.55,21 17.25,21Z" /></svg>
